X:10
T:B010-  All you that love good fellows
S:via BBBM, from 'Pills', 1714 (VI, 1719-20)
N:(1st/2)
Q:1/4=120
L:1/4
M:C|
K:C
z2G2|\
cGcd|e2d2|cGG/2F/2E/2D/2|\
C4|z2G2|cGcd|e2d2|cGG/2F/2E/2D/2|\
C4|d2dd|d3d|dcBA|G2e2|\
dBdc|BGGA|G3/2 F/2 ED|c4|]

